OK-Plus/Components/Asset Tree Template/Icons/Final Icons/linked_asset_type.svg

<svg xmlns="http://www.w3.org/2000/svg" width="24" height="24">
  <path d="M12.5176395 14.7261359l-.6536814-1.4511684c.6231572-.4574228 1.1583782-1.0264739 1.5765712-1.6759679l1.4884147.5639821c.2846357.1078817.6026608-.035483.7104323-.3200086l.5470119-1.4438955c.051792-.1366428.0471638-.2882722-.0128929-.42149894-.0600567-.13322672-.1704729-.23714135-.3072259-.28893338l-1.4884146-.56398209c.1172483-.76365687.093446-1.5442839-.0701947-2.29989648l1.4511684-.65368146c.1332267-.06005671.2371414-.1704729.2889334-.30722589.051792-.13664278.0471638-.2882722-.0128929-.42149892l-.6341768-1.40775131c-.1249621-.27747301-.451362-.40089231-.7286146-.27604047l-1.4511685.65368147c-.4574227-.62315723-1.0264738-1.15837822-1.6759679-1.57657127l.5639821-1.48841463c.1077715-.28452555-.035483-.60266081-.3200086-.7104323L10.3451294.0897098c-.1365326-.05168183-.288162-.0471638-.42149893.0128929-.13322672.06005672-.23714136.1704729-.28893338.30722589l-.5638719 1.48830443c-.76442824-.1179095-1.54637761-.09355623-2.30000667.07008453L6.11724725.51715929c-.06005671-.13322671-.1704729-.23714135-.30722588-.28893338-.1365326-.05168182-.28827221-.0471638-.42149893.01289291l-1.4078615.63417681c-.27747302.12496204-.4010025.4511416-.27604047.72861461l.65368147 1.45116845c-.62315724.45742276-1.15837822 1.02647385-1.57657127 1.67596788l-1.48841463-.56398209c-.13653259-.05168183-.28816201-.0470536-.42149892.01289291-.13322672.06005671-.23714136.1704729-.28893338.30722588L.0358718 5.9309686c-.10777149.28452555.03548305.60266082.3200086.71043231l1.48841462.56398209c-.11724832.76354667-.09344603 1.54439409.07019473 2.29989647L.4632111 10.1589609c-.13322672.0600568-.23714135.1704729-.28893338.3072259-.05179202.1366428-.0471638.2882722.0128929.4214989l.63417682 1.4077514c.05994651.1332267.1704729.2371413.30711569.2889333.13675298.0517921.2882722.047274.42149892-.0128929l1.45116845-.6536814c.45742275.6232674 1.02636365 1.1583782 1.67596788 1.5765712l-.56398209 1.4884147c-.10777149.2845255.03548305.6026608.32000859.7104323l1.44389553.5470119c.0629218.0238023.12914947.0357034.19515676.0357034.07724725 0 .1544945-.0161987.22634216-.0485963.13322672-.0600567.23714136-.1704729.28893338-.3072259l.5638719-1.4883044c.76442824.1177993 1.54648781.0935562 2.30000667-.0700846l.65357132 1.4510583c.0600567.1332267.1704729.2371414.3072258.2889334.1366428.051792.2883824.047274.421499-.0128929l1.4077513-.6340666c.2775832-.1249621.4012229-.4511416.2762608-.7286147zm-.9130823-5.23749599c-.5469018 1.44356489-1.95112683 2.41339819-3.49419857 2.41339819-.45136199 0-.89644281-.0819857-1.32290054-.2435328-.93313801-.3535081-1.6727722-1.0492843-2.08259037-1.95917103-.40981817-.9097765-.44078319-1.92478998-.08727507-2.85792799.54690174-1.44356494 1.95112678-2.41339815 3.49419852-2.41339815.45136199 0 .89644281.08198567 1.32290055.24353271.93313798.35350812 1.67277218 1.04928438 2.08259038 1.95906088.4099283.90988669.4408934 1.92490018.0872751 2.85803819zm12.2503565 7.52372819c-.0987354-.1076612-.23637-.171685-.3822692-.1779662l-1.037824-.0445191c-.0955398-.4898203-.2681064-.9626705-.5105372-1.399156l.7653099-.702388c.2242484-.2057356.2391248-.5542849.0333893-.7784231l-.7599102-.8280112c-.0987355-.1076613-.23637-.1716851-.3823794-.1779663-.1456789-.0053995-.2884926.0458415-.3961539.1445769l-.7651997.702388c-.414226-.2789055-.8705467-.4912528-1.3503392-.6283364l.0445191-1.037824c.0130031-.3040302-.2229261-.5610068-.5269563-.5740099l-1.122785-.0481556c-.3024875-.0114603-.5610068.2229261-.5740099.5268461l-.0445191 1.037824c-.4897102.0955398-.9625603.2681064-1.3991561.510427l-.702388-.7653098c-.0987354-.1076613-.23637-.1716851-.3822692-.1779662-.1458992-.0059506-.2884926.0458414-.3961539.1445768l-.8280112.7599103c-.2242485.2057355-.2391249.5542848-.0333893.7784231l.702388.7653098c-.2789056.414226-.4912529.8704366-.6283365 1.3503393l-1.0377138-.0445191c-.3027078-.0122318-.561117.2228159-.5741201.5268461l-.0481555 1.1227849c-.0062812.1460095.0457312.2884926.1445768.3961539.0987355.1076613.23637.1716851.3823795.1779663l1.0377138.0444089c.0955397.4898203.2681064.9626704.5104269 1.3992662l-.7651996.702388c-.1076613.0987354-.1716851.23637-.1779662.3822692-.0062812.1460094.0457312.2884926.1445769.3961539l.7599102.8280112c.0987354.1076613.23637.1716851.3823794.1779662.1453483.0058404.2884926-.0458414.3961539-.1445768l.7651996-.7023881c.414226.2789056.8705468.4912529 1.3503393.6283365l-.0445191 1.037824c-.0130031.3040302.2228159.5610068.5268461.5740099l1.122785.0481556c.0079341.0003305.015758.0004407.0235819.0004407.1377447 0 .2707511-.0515716.372572-.1450176.1076613-.0987355.171685-.23637.1779662-.3822692l.0445191-1.0378241c.4897101-.0955397.9625603-.2681063 1.399156-.5104269l.702388.7653098c.0987355.1076613.23637.1716851.3822692.1779662.1465605.0063914.2886028-.0458414.3961539-.1445769l.8280113-.7599102c.2242484-.2057355.2391248-.5542848.0333893-.7784231l-.702388-.7653098c.2789055-.414226.4912528-.8704366.6283364-1.3503393l1.0377138.0445191c.3036996.0116808.5610068-.2228159.5741201-.5268461l.0481556-1.122785c.0062812-.1460094-.0457313-.2884926-.1445769-.3961539zm-6.2063375 3.2578286c-1.4153548-.0606077-2.5175332-1.2615215-2.4568153-2.6768763.059065-1.3789902 1.1855966-2.4592396 2.5645868-2.4592396.0372462 0 .0747128.0007714.1122895.0024243 1.4153549.0607179 2.5175332 1.2615215 2.4568153 2.6768763-.0607179 1.4163466-1.2499509 2.5167618-2.6768763 2.4568153z"/>
</svg>

<svg xmlns="http://www.w3.org/2000/svg" width="24" height="24" viewBox="0 0 24 24">
  <path d="M12.5176395,14.6721359 L11.8639581,13.2209675 C12.4871153,12.7635447 13.0223363,12.1944936 13.4405293,11.5449996 L14.928944,12.1089817 C15.2135797,12.2168634 15.5316048,12.0734987 15.6393763,11.7889731 L16.1863882,10.3450776 C16.2381802,10.2084348 16.233552,10.0568054 16.1734953,9.92357866 C16.1134386,9.79035194 16.0030224,9.68643731 15.8662694,9.63464528 L14.3778548,9.07066319 C14.4951031,8.30700632 14.4713008,7.52637929 14.3076601,6.77076671 L15.7588285,6.11708525 C15.8920552,6.05702854 15.9959699,5.94661235 16.0477619,5.80985936 C16.0995539,5.67321658 16.0949257,5.52158716 16.034869,5.38836044 L15.4006922,3.98060913 C15.2757301,3.70313612 14.9493302,3.57971682 14.6720776,3.70456866 L13.2209091,4.35825013 C12.7634864,3.7350929 12.1944353,3.19987191 11.5449412,2.78167886 L12.1089233,1.29326423 C12.2166948,1.00873868 12.0734403,0.690603419 11.7889147,0.582831929 L10.3451294,0.0357097974 C10.2085968,-0.0159720314 10.0569674,-0.0114540038 9.92363047,0.0486027056 C9.79040375,0.108659415 9.68648911,0.219075604 9.63469709,0.355828588 L9.07082519,1.84413302 C8.30639695,1.72622352 7.52444758,1.75057679 6.77081852,1.91421755 L6.11724725,0.463159294 C6.05719054,0.329932575 5.94677435,0.226017939 5.81002137,0.174225914 C5.67348877,0.122544085 5.52174916,0.127062113 5.38852244,0.187118822 L3.98066094,0.821295634 C3.70318792,0.946257668 3.57965844,1.27243723 3.70462047,1.54991024 L4.35830194,3.00107869 C3.7351447,3.45850145 3.19992372,4.02755254 2.78173067,4.67704657 L1.29331604,4.11306448 C1.15678345,4.06138265 1.00515403,4.06601088 0.871817116,4.12595739 C0.738590398,4.1860141 0.634675761,4.29643029 0.582883736,4.43318327 L0.0358718002,5.8769686 C-0.0718996892,6.16149415 0.0713548468,6.47962942 0.355880395,6.58740091 L1.84429502,7.151383 C1.7270467,7.91492967 1.75084899,8.69577709 1.91448975,9.45127947 L0.463211101,10.1049609 C0.329984382,10.1650177 0.226069746,10.2754338 0.174277721,10.4121868 C0.122485697,10.5488296 0.12711392,10.700459 0.187170629,10.8336857 L0.821347441,12.2414371 C0.881293955,12.3746638 0.991820339,12.4785784 1.12846313,12.5303704 C1.26521611,12.5821625 1.41673533,12.5776444 1.54996205,12.5174775 L3.0011305,11.8637961 C3.45855325,12.4870635 4.02749415,13.0221743 4.67709838,13.4403673 L4.11311629,14.928782 C4.0053448,15.2133075 4.14859934,15.5314428 4.43312488,15.6392143 L5.87702041,16.1862262 C5.93994221,16.2100285 6.00616988,16.2219296 6.07217717,16.2219296 C6.14942442,16.2219296 6.22667167,16.2057309 6.29851933,16.1733333 C6.43174605,16.1132766 6.53566069,16.0028604 6.58745271,15.8661074 L7.15132461,14.377803 C7.91575285,14.4956023 8.69781242,14.4713592 9.45133128,14.3077184 L10.1049026,15.7587767 C10.1649593,15.8920034 10.2753755,15.9959181 10.4121284,16.0477101 C10.5487712,16.0995021 10.7005108,16.0949841 10.8336274,16.0348172 L12.2413787,15.4007506 C12.5189619,15.2757885 12.6426016,14.949609 12.5176395,14.6721359 Z M11.6045572,9.43463991 C11.0576554,10.8782048 9.65343037,11.8480381 8.11035863,11.8480381 C7.65899664,11.8480381 7.21391582,11.7660524 6.78745809,11.6045053 C5.85432008,11.2509972 5.11468589,10.555221 4.70486772,9.64533427 C4.29504955,8.73555777 4.26408453,7.72054429 4.61759265,6.78740628 C5.16449439,5.34384134 6.56871943,4.37400813 8.11179117,4.37400813 C8.56315316,4.37400813 9.00823398,4.4559938 9.43469172,4.61754084 C10.3678297,4.97104896 11.1074639,5.66682522 11.5172821,6.57660172 C11.9272104,7.48648841 11.9581755,8.5015019 11.6045572,9.43463991 Z M23.8549137,16.9583681 C23.7561783,16.8507069 23.6185437,16.7866831 23.4726445,16.7804019 L22.4348205,16.7358828 C22.3392807,16.2460625 22.1667141,15.7732123 21.9242833,15.3367268 L22.6895932,14.6343388 C22.9138416,14.4286032 22.928718,14.0800539 22.7229825,13.8559157 L21.9630723,13.0279045 C21.8643368,12.9202432 21.7267023,12.8562194 21.5806929,12.8499382 C21.435014,12.8445387 21.2922003,12.8957797 21.184539,12.9945151 L20.4193393,13.6969031 C20.0051133,13.4179976 19.5487926,13.2056503 19.0690001,13.0685667 L19.1135192,12.0307427 C19.1265223,11.7267125 18.8905931,11.4697359 18.5865629,11.4567328 L17.4637779,11.4085772 C17.1612904,11.3971169 16.9027711,11.6315033 16.889768,11.9354233 L16.8452489,12.9732473 C16.3555387,13.0687871 15.8826886,13.2413537 15.4460928,13.4836743 L14.7437048,12.7183645 C14.6449694,12.6107032 14.5073348,12.5466794 14.3614356,12.5403983 C14.2155364,12.5344477 14.072943,12.5862397 13.9652817,12.6849751 L13.1372705,13.4448854 C12.913022,13.6506209 12.8981456,13.9991702 13.1038812,14.2233085 L13.8062692,14.9886183 C13.5273636,15.4028443 13.3150163,15.8590549 13.1779327,16.3389576 L12.1402189,16.2944385 C11.8375111,16.2822067 11.5791019,16.5172544 11.5660988,16.8212846 L11.5179433,17.9440695 C11.5116621,18.090079 11.5636745,18.2325621 11.6625201,18.3402234 C11.7612556,18.4478847 11.8988901,18.5119085 12.0448996,18.5181897 L13.0826134,18.5625986 C13.1781531,19.0524189 13.3507198,19.525269 13.5930403,19.9618648 L12.8278407,20.6642528 C12.7201794,20.7629882 12.6561556,20.9006228 12.6498745,21.046522 C12.6435933,21.1925314 12.6956057,21.3350146 12.7944514,21.4426759 L13.5543616,22.2706871 C13.653097,22.3783484 13.7907316,22.4423722 13.936741,22.4486533 C14.0820893,22.4544937 14.2252336,22.4028119 14.3328949,22.3040765 L15.0980945,21.6016884 C15.5123205,21.880594 15.9686413,22.0929413 16.4484338,22.2300249 L16.4039147,23.2678489 C16.3909116,23.5718791 16.6267306,23.8288557 16.9307608,23.8418588 L18.0535458,23.8900144 C18.0614799,23.8903449 18.0693038,23.8904551 18.0771277,23.8904551 C18.2148724,23.8904551 18.3478788,23.8388835 18.4496997,23.7454375 C18.557361,23.646702 18.6213847,23.5090675 18.6276659,23.3631683 L18.672185,22.3253442 C19.1618951,22.2298045 19.6347453,22.0572379 20.071341,21.8149173 L20.773729,22.5802271 C20.8724645,22.6878884 21.010099,22.7519122 21.1559982,22.7581933 C21.3025587,22.7645847 21.444601,22.7123519 21.5521521,22.6136164 L22.3801634,21.8537062 C22.6044118,21.6479707 22.6192882,21.2994214 22.4135527,21.0752831 L21.7111647,20.3099733 C21.9900702,19.8957473 22.2024175,19.4395367 22.3395011,18.959634 L23.3772149,19.0041531 C23.6809145,19.0158339 23.9382217,18.7813372 23.951335,18.477307 L23.9994906,17.354522 C24.0057718,17.2085126 23.9537593,17.0660294 23.8549137,16.9583681 Z M17.6485762,20.2161967 C16.2332214,20.155589 15.131043,18.9546752 15.1917609,17.5393204 C15.2508259,16.1603302 16.3773575,15.0800808 17.7563477,15.0800808 C17.7935939,15.0800808 17.8310605,15.0808522 17.8686372,15.0825051 C19.2839921,15.143223 20.3861704,16.3440266 20.3254525,17.7593814 C20.2647346,19.175728 19.0755016,20.2761432 17.6485762,20.2161967 Z" transform="translate(0 .054)"/>
</svg>
